libs/shared/images/icons-sharp-light/transporter-4.svg

<svg xmlns="http://www.w3.org/2000/svg" viewBox="0 0 512 512"><defs><style>.fa-secondary{opacity:.4}</style></defs><path class="fa-secondary" d="M0 400l32-16 16-32 16 32 32 16L64 416 48 448 32 416 0 400zM96 256l16 0 288 0 16 0 0 32-16 0-288 0-16 0 0-32zm32-64l16 0 224 0 16 0 0 32-16 0-224 0-16 0 0-32zm32-64l16 0 160 0 16 0 0 32-16 0-160 0-16 0 0-32zm0 192l16 0 160 0 16 0 0 32-16 0-160 0-16 0 0-32zm0 64l16 0 160 0 16 0 0 32-16 0-160 0-16 0 0-32zM208 0l16 0 64 0 16 0 0 32-16 0-64 0-16 0 0-32zm0 64l16 0 64 0 16 0 0 32-16 0-64 0-16 0 0-32zM416 176l32-16 16-32 16 32 32 16-32 16-16 32-16-32-32-16z"/><path class="fa-primary" d="M296 512l120 0 0-64L96 448l0 64 120 0 80 0z"/></svg>

<svg xmlns="http://www.w3.org/2000/svg" viewBox="0 0 512 512"><path d="M208 0h16 64 16V32H288 224 208V0zm0 64h16 64 16V96H288 224 208V64zm-48 64h16H336h16v32H336 176 160V128zm-32 64h16H368h16v32H368 144 128V192zM96 256h16H400h16v32H400 112 96V256zm64 64h16H336h16v32H336 176 160V320zm0 64h16H336h16v32H336 176 160V384zM96 448h16H400h16v16 32 16H384V496 480H128v16 16H96V496 464 448zM480 144v16h16 16v32H496 480v16 16H448V208 192H432 416V160h16 16V144 128h32v16zM64 368v16H80 96v32H80 64v16 16H32V432 416H16 0V384H16 32V368 352H64v16z"/></svg>
